src/pos-icons/led-outline.svg

<svg height="24" viewBox="0 0 24 24" width="24" xmlns="http://www.w3.org/2000/svg"><path d="m12 6a4 4 0 0 0 -4 4v6h-2v2h3v5h2v-5h2v5h2v-5h3v-2h-2v-6a4 4 0 0 0 -4-4m0 2a2 2 0 0 1 2 2v5h-4v-5a2 2 0 0 1 2-2z"/></svg>

<?xml version="1.0" encoding="UTF-8"?><!DOCTYPE svg PUBLIC "-//W3C//DTD SVG 1.1//EN" "http://www.w3.org/Graphics/SVG/1.1/DTD/svg11.dtd"><svg xmlns="http://www.w3.org/2000/svg" xmlns:xlink="http://www.w3.org/1999/xlink" version="1.1" id="mdi-led-outline" width="24" height="24" viewBox="0 0 24 24"><path d="M12,6A4,4 0 0,0 8,10V16H6V18H9V23H11V18H13V23H15V18H18V16H16V10A4,4 0 0,0 12,6M12,8A2,2 0 0,1 14,10V15H10V10A2,2 0 0,1 12,8Z" /></svg>
